usr/share/icons/biglinux-icons-material/scalable/apps/zeal.svg

<?xml version="1.0" encoding="UTF-8" standalone="no"?>
<svg
   width="24"
   height="24"
   viewBox="0 0 6.349875 6.349875"
   version="1.1"
   id="svg7651"
   sodipodi:docname="zeal.svg"
   xml:space="preserve"
   inkscape:version="1.2.2 (b0a8486541, 2022-12-01)"
   xmlns:inkscape="http://www.inkscape.org/namespaces/inkscape"
   xmlns:sodipodi="http://sodipodi.sourceforge.net/DTD/sodipodi-0.dtd"
   xmlns="http://www.w3.org/2000/svg"
   xmlns:svg="http://www.w3.org/2000/svg"><sodipodi:namedview
     id="namedview7653"
     pagecolor="#ffffff"
     bordercolor="#000000"
     borderopacity="0.25"
     inkscape:showpageshadow="2"
     inkscape:pageopacity="0.0"
     inkscape:pagecheckerboard="0"
     inkscape:deskcolor="#d1d1d1"
     showgrid="false"
     inkscape:zoom="6.828125"
     inkscape:cx="20.064073"
     inkscape:cy="9.812357"
     inkscape:window-width="2560"
     inkscape:window-height="998"
     inkscape:window-x="1680"
     inkscape:window-y="0"
     inkscape:window-maximized="1"
     inkscape:current-layer="svg7651" /><defs
     id="defs7639"><linearGradient
       id="a"
       x1="50"
       x2="50"
       y1="59"
       y2="39"
       gradientTransform="matrix(0.26458,0,0,0.26458,6.8971945,-1.5886796)"
       gradientUnits="userSpaceOnUse"><stop
         offset="0"
         id="stop7634" /><stop
         stop-opacity="0"
         offset="1"
         id="stop7636" /></linearGradient><radialGradient
       fx="0"
       fy="0"
       cx="0"
       cy="0"
       r="1"
       gradientUnits="userSpaceOnUse"
       gradientTransform="matrix(0,5.8207184,-5.8207184,0,3.174815,0.2645815)"
       spreadMethod="pad"
       id="radialGradient3666-6"><stop
         style="stop-color:#ff5433;stop-opacity:1;"
         offset="0"
         id="stop3662-7" /><stop
         style="stop-color:#b53517;stop-opacity:1;"
         offset="1"
         id="stop3664-5" /></radialGradient><radialGradient
       fx="0"
       fy="0"
       cx="0"
       cy="0"
       r="1"
       gradientUnits="userSpaceOnUse"
       gradientTransform="matrix(-1.152995,2.305996,-2.305996,-1.152995,16.072102,7.847013)"
       spreadMethod="pad"
       id="radialGradient56146"><stop
         style="stop-color:#ff8a7e;stop-opacity:1;"
         offset="0"
         id="stop56142" /><stop
         style="stop-color:#ff584c;stop-opacity:1;"
         offset="1"
         id="stop56144" /></radialGradient><radialGradient
       fx="0"
       fy="0"
       cx="0"
       cy="0"
       r="1"
       gradientUnits="userSpaceOnUse"
       gradientTransform="matrix(0,8.250026,-8.250026,0,9.000388,0.750028)"
       spreadMethod="pad"
       id="radialGradient15853-3"><stop
         style="stop-opacity:1;stop-color:#d0bc81"
         offset="0"
         id="stop15849-6" /><stop
         style="stop-opacity:1;stop-color:#b78b42"
         offset="1"
         id="stop15851-7" /></radialGradient><radialGradient
       fx="0"
       fy="0"
       cx="0"
       cy="0"
       r="1"
       gradientUnits="userSpaceOnUse"
       gradientTransform="matrix(-1.152995,2.305996,-2.305996,-1.152995,16.072102,9.721326)"
       spreadMethod="pad"
       id="radialGradient15873-5"><stop
         style="stop-opacity:1;stop-color:#ffe164"
         offset="0"
         id="stop15869-3" /><stop
         style="stop-opacity:1;stop-color:#ffb450"
         offset="1"
         id="stop15871-5" /></radialGradient><radialGradient
       fx="0"
       fy="0"
       cx="0"
       cy="0"
       r="1"
       gradientUnits="userSpaceOnUse"
       gradientTransform="matrix(-1.152995,2.305996,-2.305996,-1.152995,16.072102,7.847013)"
       spreadMethod="pad"
       id="radialGradient15891-6"><stop
         style="stop-opacity:1;stop-color:#a5eb78"
         offset="0"
         id="stop15887-2" /><stop
         style="stop-opacity:1;stop-color:#60c31d"
         offset="1"
         id="stop15889-9" /></radialGradient><radialGradient
       fx="0"
       fy="0"
       cx="0"
       cy="0"
       r="1"
       gradientUnits="userSpaceOnUse"
       gradientTransform="matrix(-1.152995,2.305996,-2.305996,-1.152995,16.072102,5.9727)"
       spreadMethod="pad"
       id="radialGradient15909-1"><stop
         style="stop-opacity:1;stop-color:#00d2ff"
         offset="0"
         id="stop15905-2" /><stop
         style="stop-opacity:1;stop-color:#4a85cc"
         offset="1"
         id="stop15907-7" /></radialGradient><radialGradient
       fx="0"
       fy="0"
       cx="0"
       cy="0"
       r="1"
       gradientUnits="userSpaceOnUse"
       gradientTransform="matrix(0,2.9103683,-2.9103683,0,-7.3977229,0.26582719)"
       spreadMethod="pad"
       id="radialGradient15927-0"><stop
         style="stop-color:#387fe7;stop-opacity:1;"
         offset="0"
         id="stop15923-9" /><stop
         style="stop-color:#387fe7;stop-opacity:1;"
         offset="1"
         id="stop15925-3" /></radialGradient></defs><path
     d="m 2.538065,0.2949165 c 0.031749,0 0.062088,-0.0042 0.091015,-0.01235 0.3802869,-0.02505 0.7605737,-0.02364 1.1398026,0.0028 0.3443042,0.02752 0.6776726,0.10195 1.0004579,0.224362 0.5358586,0.220482 0.9023876,0.603591 1.1009976,1.147916 0.111476,0.328077 0.178855,0.665679 0.199669,1.011394 0.02751,0.4356715 0.01799,0.8695795 -0.03034,1.3038415 -0.03704,0.304441 -0.115708,0.596536 -0.237062,0.877693 C 5.5778911,5.338455 5.2127741,5.674647 4.7086643,5.859146 4.3005084,5.997079 3.8803583,6.070103 3.4475085,6.077157 2.9624487,6.103297 2.4816221,6.065887 2.0050286,5.968174 1.129804,5.773798 0.588301,5.239351 0.384399,4.365537 0.297619,3.972902 0.257402,3.574625 0.265868,3.172113 0.256368,2.7449075 0.301498,2.3219345 0.402391,1.9056655 c 0.214837,-0.815606 0.733057,-1.32148 1.5543081,-1.516915 0.1915545,-0.04692 0.3859313,-0.07867 0.5813663,-0.09384 z"
     style="fill:url(#radialGradient3666-6);fill-rule:evenodd;stroke:none;stroke-width:0.352683;stroke-dasharray:none"
     id="path3668" /><path
     id="path33327"
     style="fill:#ffffff;fill-opacity:1;fill-rule:evenodd;stroke:none;stroke-width:0.352683;stroke-dasharray:none"
     d="m 2.6680017,0.280597 c -0.012914,7.897e-4 -0.025843,0.00122 -0.038757,0.00207 -0.028927,0.00815 -0.0592,0.012402 -0.090949,0.012402 C 2.3428609,0.310239 2.1485016,0.341682 1.9569473,0.388602 1.8197799,0.421244 1.6911906,0.463181 1.5709319,0.5131397 V 2.5987561 L 2.1197255,2.0494465 2.6680017,2.5977226 Z" /><path
     d="m 4.5175523,2.8965394 c -0.4275408,0 -0.7030457,0.00725 -0.8797756,0.032924 a 0.57618762,0.57618762 0 0 0 -0.2023919,0.059071 0.16365665,0.16365665 0 0 0 -0.089575,0.1404155 c 0,0.038735 0.018883,0.067301 0.049387,0.083765 a 0.12298459,0.12298459 0 0 0 0.063914,0.013072 0.38735302,0.38735302 0 0 0 0.1244367,-0.031473 c 0.00534,-0.00195 0.040188,-0.010161 0.086186,-0.017914 0.045998,-0.00774 0.1055539,-0.015978 0.1728562,-0.023241 0.1346063,-0.014525 0.3031049,-0.027115 0.4706352,-0.034377 l 0.413499,-0.0184 -0.081345,0.077472 C 4.5204575,3.2950287 4.1088948,3.6097531 3.7036268,3.9060781 3.5002664,4.0542408 3.2993271,4.1990139 3.132281,4.3142515 2.9642666,4.4294887 2.8277247,4.5176114 2.773011,4.5466631 2.701835,4.5824931 2.6311431,4.6197751 2.5604511,4.656575 c 0.011625,0.040672 0.020337,0.085702 0.029051,0.1220165 0.088122,0.00386 0.1762457,0.00581 0.2648528,0.00824 0.052292,0.00144 0.2019077,0.018399 0.3863845,0.045998 0.1839927,0.028082 0.4072048,0.065365 0.6241226,0.1055538 0.4599824,0.085696 0.8061791,0.1360513 1.0661899,0.1500929 0.2600107,0.013558 0.4367405,-0.00581 0.5616618,-0.072628 0.094417,-0.050356 0.1849606,-0.1500991 0.2604945,-0.2566213 0.07505,-0.106522 0.1394471,-0.2159492 0.138963,-0.3195662 A 0.10361694,0.10361694 0 0 0 5.8810402,4.3936582 0.07601803,0.07601803 0 0 0 5.851989,4.363639 0.07262868,0.07262868 0 0 0 5.8122853,4.3505669 0.09199635,0.09199635 0 0 0 5.7628982,4.363639 c -0.048418,0.03583 -0.077471,0.095385 -0.1055534,0.133636 -0.072628,0.1225 -0.1404154,0.1888346 -0.2585581,0.2338644 -0.1171743,0.044546 -0.2905147,0.06246 -0.5553674,0.06246 -0.235317,0 -0.6003972,-0.032925 -0.9151215,-0.075534 A 6.1521344,6.1521344 0 0 1 3.5186657,4.65028 h -0.00195 A 1.809907,1.809907 0 0 1 3.3864814,4.618807 C 3.4227964,4.579104 3.4978454,4.5171276 3.5995256,4.4328776 A 59.232088,59.232088 0 0 1 5.6476548,2.8965391 H 4.5180365 Z"
     color="#000000"
     fill="#f1f2f2"
     id="path58133"
     style="stroke-width:0.48419" /><path
     d="M 1.1079326,0.78137811 C 0.7646865,1.0473673 0.530447,1.423421 0.402391,1.9084809 0.301498,2.3247504 0.256344,2.7477226 0.265869,3.1749282 c -0.0085,0.4025114 0.03175,0.8007896 0.118531,1.1934235 0.121353,0.5206898 0.3622952,0.9203792 0.7235326,1.2001264 -0.1890852,-1.4756403 -0.2028433,-3.0620507 0,-4.78709999 z"
     style="fill:#392e28;fill-opacity:1;fill-rule:nonzero;stroke:none;stroke-width:0.35277"
     id="path15931" /></svg>

<svg xmlns="http://www.w3.org/2000/svg" xml:space="preserve" width="24" height="24" viewBox="0 0 6.35 6.35"><defs><radialGradient id="a" cx="0" cy="0" r="1" fx="0" fy="0" gradientTransform="rotate(90 1.455 1.72) scale(5.82072)" gradientUnits="userSpaceOnUse" spreadMethod="pad"><stop offset="0" style="stop-color:#ff5433;stop-opacity:1"/><stop offset="1" style="stop-color:#b53517;stop-opacity:1"/></radialGradient></defs><path d="M2.538.295A.334.334 0 0 0 2.63.283a8.42 8.42 0 0 1 1.14.002 3.62 3.62 0 0 1 1 .225c.536.22.903.603 1.101 1.148.112.328.18.665.2 1.011.028.436.018.87-.03 1.304a3.166 3.166 0 0 1-.237.878c-.225.487-.59.824-1.094 1.008a4.125 4.125 0 0 1-1.261.218 5.642 5.642 0 0 1-1.443-.109C1.13 5.774.588 5.24.385 4.366a5.025 5.025 0 0 1-.12-1.194c-.009-.427.036-.85.137-1.266C.617 1.09 1.135.584 1.957.389c.191-.047.386-.079.581-.094z" style="fill:url(#a);fill-rule:evenodd;stroke:none;stroke-width:.352683;stroke-dasharray:none"/><path d="m2.668.28-.039.003a.334.334 0 0 1-.09.012c-.196.015-.39.047-.582.094a2.533 2.533 0 0 0-.386.124V2.6l.549-.55.548.549Z" style="fill:#fff;fill-opacity:1;fill-rule:evenodd;stroke:none;stroke-width:.352683;stroke-dasharray:none"/><path fill="#f1f2f2" d="M4.518 2.897c-.428 0-.703.007-.88.032a.576.576 0 0 0-.203.06.164.164 0 0 0-.09.14.09.09 0 0 0 .05.084.123.123 0 0 0 .064.013.387.387 0 0 0 .125-.032 3.037 3.037 0 0 1 .259-.041 7.68 7.68 0 0 1 .47-.034l.414-.019-.082.078c-.125.117-.536.432-.941.728-.204.148-.405.293-.572.408a5.292 5.292 0 0 1-.359.233c-.071.035-.142.073-.213.11.012.04.02.085.03.122l.264.008c.053.001.202.018.387.046.184.028.407.065.624.105.46.086.806.136 1.066.15.26.014.437-.005.562-.072a.844.844 0 0 0 .26-.257c.075-.106.14-.216.14-.32a.104.104 0 0 0-.012-.045.076.076 0 0 0-.029-.03.073.073 0 0 0-.04-.013.092.092 0 0 0-.05.013c-.048.035-.077.095-.105.133a.476.476 0 0 1-.258.234c-.117.045-.29.063-.556.063-.235 0-.6-.033-.915-.076a6.152 6.152 0 0 1-.41-.068h-.001a1.81 1.81 0 0 1-.13-.031c.036-.04.11-.102.213-.186a59.232 59.232 0 0 1 2.048-1.536h-1.13Z" color="#000" style="stroke-width:.48419"/><path d="M1.108.781c-.343.266-.578.642-.706 1.127-.1.417-.146.84-.136 1.267-.009.402.032.8.118 1.193.122.521.363.92.724 1.2-.19-1.475-.203-3.062 0-4.787z" style="fill:#392e28;fill-opacity:1;fill-rule:nonzero;stroke:none;stroke-width:.35277"/></svg>
